!!!SOCIAL_FUNCTION:	woman's game songs
!!!PDT:	1958
!!!OTL: No_39_Woman's_Game_Song_(c).krn
!!!REG: Northern California
!!!LANG: Non-Tone
!!!LING_GROUP: Penutian
**kern
*staff1
=1-
*clefF4
*k[]
*M3/4
12d\L
12d\
12d\J
8c\L
8A\J
8A\L
16A\Jk
16r
=2
*M2/4
8d\L
8d\J
8c\L
16A\Jk
16r
=3
*M3/4
8d\L
8d\J
4d\
8c\L
8A\J
=4
8G\L
8G\J
8G\L
8G\J
4r
=5
=
*M5/8
8.c\L
16c\K
8.d\
16c\L
16A\
16A\JJ
=6
*M2/4
8d\L
8d\J
8c\L
16A\Jk
16r
=7
*M3/4
8d\L
8d\J
4d\
8c\L
8A\J
=8
8G\L
8G\J
8G\L
8G\J
8G\
8r
=9:|!
*M2/4
4e\
8.e\L
16d\Jk
=10
*M3/8
8c\L
8d\
8e\J
=11
*M2/4
4.d\
16c\LL
16A\JJ
=12
4G\
4r
=13
4e\
12d\L
12c\
12A\J
=14
*M3/8
16G\
16r
16d\LL
16d\
16c\
16A\JJ
=15
8d\L
16e\L
16d\
16c\
16A\JJ
=16
*M4/8
16G\LL
16G\JJ
16G\LL
16G\JJ
16G\LL
16G\JJ
8r
=17!|:
*M5/8
8.c\L
16c\K
8.d\
16c\L
16A\
16A\JJ
=18
*M2/4
8d\L
8d\J
8c\L
16A\Jk
16r
=19
*M3/4
8d\L
8d\J
4d\
8c\L
8A\J
=20
8G\L
8G\J
8G\L
8G\J
8G\
8r
==:|!
*-
